actions/symbolic/pane-hide-symbolic-rtl.svg

<?xml version="1.0" encoding="UTF-8" standalone="no"?>
<svg
   height="16"
   width="16"
   version="1.1"
   id="svg6"
   xml:space="preserve"
   xmlns="http://www.w3.org/2000/svg"
   xmlns:svg="http://www.w3.org/2000/svg"><defs
     id="defs10" /><path
     id="rect520-6-7-9-0-2-8-5"
     style="fill:#555761;stroke-width:0.999997;stop-color:#000000"
     d="M 13.5,2 C 14.330999,2 15,2.669004 15,3.5 v 9 C 15,13.330995 14.330999,14 13.5,14 H 9.25 C 9.1115001,14 9,13.8885 9,13.75 v -0.5 C 9,13.1115 9.1115001,13 9.25,13 h 4.25 c 0.277,0 0.5,-0.223 0.5,-0.5 v -9 C 14,3.2230015 13.777,3 13.5,3 H 9.25 C 9.1115001,3 9,2.8884996 9,2.75 V 2.25 C 9,2.1115004 9.1115001,2 9.25,2 Z M 4.484375,5 c 0.28748,0 0.519531,0.2017629 0.519531,0.4511719 l 0.03125,1.5292969 3.4121096,0.027344 C 8.7347253,7.0100985 9,7.3013724 9,7.5507812 V 8.4492188 C 9,8.6986278 8.7738078,9.0178241 8.4863281,9.0175781 L 5,9 5.003906,10.548828 C 5.004346,10.798236 4.771855,11 4.484375,11 4.329445,11 4.190623,10.942426 4.095703,10.849609 L 1.142578,8.3144531 C 1.054838,8.2338253 1,8.1254945 1,8.0058594 1,7.8862237 1.054888,7.7778934 1.142578,7.6972656 L 4.095703,5.1503906 C 4.190633,5.0575649 4.329445,5 4.484375,5 Z" /></svg>

<svg
        xmlns='http://www.w3.org/2000/svg'
        xmlns:svg='http://www.w3.org/2000/svg'
        id='svg6'
        width='16'
        height='16'>
  <path
          id='rect520-6-7-9-0-2-8-5'
          fill='url(#gpa:foreground) #555761'
          fill-opacity='1'
          fill-rule='nonzero'
          stroke-width='0.999997'
          d='M 13.5 2 C 14.331 2, 15 2.669, 15 3.5 L 15 12.5 C 15 13.331, 14.331 14, 13.5 14 L 9.25 14 C 9.1115 14, 9 13.8885, 9 13.75 L 9 13.25 C 9 13.1115, 9.1115 13, 9.25 13 L 13.5 13 C 13.777 13, 14 12.777, 14 12.5 L 14 3.5 C 14 3.223, 13.777 3, 13.5 3 L 9.25 3 C 9.1115 3, 9 2.8885, 9 2.75 L 9 2.25 C 9 2.1115, 9.1115 2, 9.25 2 Z M 4.48438 5 C 4.77185 5, 5.00391 5.20176, 5.00391 5.45117 L 5.03516 6.98047 L 8.44727 7.00781 C 8.73472 7.0101, 9 7.30137, 9 7.55078 L 9 8.44922 C 9 8.69863, 8.77381 9.01782, 8.48633 9.01758 L 5 9 L 5.00391 10.5488 C 5.00435 10.7982, 4.77185 11, 4.48438 11 C 4.32944 11, 4.19062 10.9424, 4.0957 10.8496 L 1.14258 8.31445 C 1.05484 8.23383, 1 8.12549, 1 8.00586 C 1 7.88622, 1.05489 7.77789, 1.14258 7.69727 L 4.0957 5.15039 C 4.19063 5.05756, 4.32944 5, 4.48438 5 Z'
          class="foreground">
  </path>
</svg>
